X: 8052
T: Connie The Soldier
R: jig
M: 6/8
K: Dmajor
|:EAA A2d|cAG EED|DFF DEE|DFF GED|
E2A A2d|cAG EED|EFG AGE|EDD D3:|
|:fdd edc|Add d2e|f2d cAA|BGG A2e|
fdd edc|Add cAG|EFG AGE|EDD D3:|

